img/involved.svg

<svg width="48" height="48" viewBox="0 0 48 48" fill="none" xmlns="http://www.w3.org/2000/svg">
<g clip-path="url(#clip0)">
<path d="M33.295 48C44.314 48 50.602 35.375 46.967 22.253C43.333 9.13096 33.966 17.326 26.667 5.22596C18.654 -8.06404 1.387 6.33896 0 22.253C0.53 30.835 7.93 48 33.295 48Z" fill="#FFDD76"/>
<mask id="mask0" mask-type="alpha" maskUnits="userSpaceOnUse" x="12" y="14" width="24" height="20">
<path d="M32 16V23L36 19.5L32 16ZM18.75 14C18.5511 14 18.3603 14.079 18.2197 14.2197C18.079 14.3603 18 14.5511 18 14.75V33.25C18 33.4489 18.079 33.6397 18.2197 33.7803C18.3603 33.921 18.5511 34 18.75 34H29.25C29.4489 34 29.6397 33.921 29.7803 33.7803C29.921 33.6397 30 33.4489 30 33.25V14.75C30 14.5511 29.921 14.3603 29.7803 14.2197C29.6397 14.079 29.4489 14 29.25 14H18.75ZM12 19V20.5H13.5V19H12ZM15 19V20.5H16.5V19H15ZM19.5 15.5H28.5V32.5H19.5V15.5ZM21.25 17C21.1483 16.9947 21.0465 17.0102 20.9509 17.0456C20.8554 17.0809 20.768 17.1353 20.6941 17.2054C20.6202 17.2756 20.5614 17.3601 20.5212 17.4537C20.481 17.5473 20.4603 17.6481 20.4603 17.75C20.4603 17.8519 20.481 17.9527 20.5212 18.0463C20.5614 18.1399 20.6202 18.2244 20.6941 18.2946C20.768 18.3647 20.8554 18.4191 20.9509 18.4544C21.0465 18.4898 21.1483 18.5053 21.25 18.5H26.75C26.8517 18.5053 26.9535 18.4898 27.0491 18.4544C27.1446 18.4191 27.232 18.3647 27.3059 18.2946C27.3798 18.2244 27.4386 18.1399 27.4788 18.0463C27.519 17.9527 27.5397 17.8519 27.5397 17.75C27.5397 17.6481 27.519 17.5473 27.4788 17.4537C27.4386 17.3601 27.3798 17.2756 27.3059 17.2054C27.232 17.1353 27.1446 17.0809 27.0491 17.0456C26.9535 17.0102 26.8517 16.9947 26.75 17H21.25ZM16 24L12 27.5L16 31V24ZM31.5 27V28.5H33V27H31.5ZM34.5 27V28.5H36V27H34.5Z" fill="white"/>
</mask>
<g mask="url(#mask0)">
<path d="M32 16V23L36 19.5L32 16ZM18.75 14C18.5511 14 18.3603 14.079 18.2197 14.2197C18.079 14.3603 18 14.5511 18 14.75V33.25C18 33.4489 18.079 33.6397 18.2197 33.7803C18.3603 33.921 18.5511 34 18.75 34H29.25C29.4489 34 29.6397 33.921 29.7803 33.7803C29.921 33.6397 30 33.4489 30 33.25V14.75C30 14.5511 29.921 14.3603 29.7803 14.2197C29.6397 14.079 29.4489 14 29.25 14H18.75ZM12 19V20.5H13.5V19H12ZM15 19V20.5H16.5V19H15ZM19.5 15.5H28.5V32.5H19.5V15.5ZM21.25 17C21.1483 16.9947 21.0465 17.0102 20.9509 17.0456C20.8554 17.0809 20.768 17.1353 20.6941 17.2054C20.6202 17.2756 20.5614 17.3601 20.5212 17.4537C20.481 17.5473 20.4603 17.6481 20.4603 17.75C20.4603 17.8519 20.481 17.9527 20.5212 18.0463C20.5614 18.1399 20.6202 18.2244 20.6941 18.2946C20.768 18.3647 20.8554 18.4191 20.9509 18.4544C21.0465 18.4898 21.1483 18.5053 21.25 18.5H26.75C26.8517 18.5053 26.9535 18.4898 27.0491 18.4544C27.1446 18.4191 27.232 18.3647 27.3059 18.2946C27.3798 18.2244 27.4386 18.1399 27.4788 18.0463C27.519 17.9527 27.5397 17.8519 27.5397 17.75C27.5397 17.6481 27.519 17.5473 27.4788 17.4537C27.4386 17.3601 27.3798 17.2756 27.3059 17.2054C27.232 17.1353 27.1446 17.0809 27.0491 17.0456C26.9535 17.0102 26.8517 16.9947 26.75 17H21.25ZM16 24L12 27.5L16 31V24ZM31.5 27V28.5H33V27H31.5ZM34.5 27V28.5H36V27H34.5Z" fill="#63522B" stroke="#63522B" stroke-width="6.25"/>
</g>
</g>
<defs>
<clipPath id="clip0">
<rect width="48" height="48" fill="white"/>
</clipPath>
</defs>
</svg>

<svg width="48" height="48" fill="none" xmlns="http://www.w3.org/2000/svg"><g clip-path="url(#clip0)"><path d="M33.295 48c11.019 0 17.307-12.625 13.672-25.747-3.634-13.122-13.001-4.927-20.3-17.027C18.654-8.064 1.387 6.339 0 22.253.53 30.835 7.93 48 33.295 48z" fill="#FFDD76"/><mask id="a" maskUnits="userSpaceOnUse" x="12" y="14" width="24" height="20"><path d="M32 16v7l4-3.5-4-3.5zm-13.25-2a.75.75 0 00-.75.75v18.5a.75.75 0 00.75.75h10.5a.75.75 0 00.75-.75v-18.5a.75.75 0 00-.75-.75h-10.5zM12 19v1.5h1.5V19H12zm3 0v1.5h1.5V19H15zm4.5-3.5h9v17h-9v-17zm1.75 1.5a.75.75 0 00-.729 1.046.751.751 0 00.729.454h5.5a.75.75 0 00.729-1.046.751.751 0 00-.729-.454h-5.5zM16 24l-4 3.5 4 3.5v-7zm15.5 3v1.5H33V27h-1.5zm3 0v1.5H36V27h-1.5z" fill="#fff"/></mask><g mask="url(#a)"><path d="M32 16v7l4-3.5-4-3.5zm-13.25-2a.75.75 0 00-.75.75v18.5a.75.75 0 00.75.75h10.5a.75.75 0 00.75-.75v-18.5a.75.75 0 00-.75-.75h-10.5zM12 19v1.5h1.5V19H12zm3 0v1.5h1.5V19H15zm4.5-3.5h9v17h-9v-17zm1.75 1.5a.75.75 0 00-.729 1.046.751.751 0 00.729.454h5.5a.75.75 0 00.729-1.046.751.751 0 00-.729-.454h-5.5zM16 24l-4 3.5 4 3.5v-7zm15.5 3v1.5H33V27h-1.5zm3 0v1.5H36V27h-1.5z" fill="#63522B" stroke="#63522B" stroke-width="6.25"/></g></g><defs><clipPath id="clip0"><path fill="#fff" d="M0 0h48v48H0z"/></clipPath></defs></svg>
